dist/svg/broom-duo-tone.svg

<svg xmlns="http://www.w3.org/2000/svg" viewBox="0 0 24 24"><path d="M19.34 4.277a1 1 0 0 0-.22.081c-.055.028-1.886 1.834-4.068 4.014l-3.969 3.964-.772-.761c-.629-.62-.82-.784-1.032-.888-.46-.227-1.079-.233-1.514-.016-.34.17-3.676 2.566-3.879 2.787-.227.246-.357.539-.414.931-.04.273-.037.358.021.592.037.15.117.36.177.467.073.128.976 1.06 2.65 2.735 2.391 2.392 2.557 2.55 2.834 2.687.254.126.34.148.644.162.565.027.964-.123 1.326-.5.27-.281 2.588-3.548 2.726-3.842.219-.467.187-1.104-.078-1.563-.06-.103-.446-.53-.859-.949l-.75-.761 3.919-3.919c2.156-2.155 3.966-3.984 4.022-4.065.191-.274.178-.657-.032-.896-.198-.225-.471-.322-.732-.26m-8.829 9.613c1.042 1.04 1.921 1.94 1.953 2 .044.084.048.131.015.192-.137.257-2.448 3.431-2.509 3.447-.127.033-.22-.032-.608-.424l-.378-.383.504-.513c.414-.421.513-.546.552-.69a.742.742 0 0 0-.637-.95c-.334-.032-.457.039-1.005.576l-.502.493-.517-.519-.517-.518.824-.831c.454-.456.856-.891.894-.966.107-.212.07-.591-.077-.784a.766.766 0 0 0-.894-.238c-.095.04-.455.367-.991.901l-.842.838-.408-.415c-.406-.413-.458-.505-.358-.637.028-.036.806-.606 1.73-1.266 1.088-.777 1.715-1.201 1.778-1.202.077-.001.511.41 1.993 1.889"/></svg>

<svg fill="none" xmlns="http://www.w3.org/2000/svg" viewBox="0 0 24 24"><path d="M19.340 4.277 C 19.274 4.293,19.175 4.329,19.120 4.358 C 19.065 4.386,17.234 6.192,15.052 8.372 L 11.083 12.336 10.311 11.575 C 9.682 10.955,9.491 10.791,9.279 10.687 C 8.819 10.460,8.200 10.454,7.765 10.671 C 7.425 10.841,4.089 13.237,3.886 13.458 C 3.659 13.704,3.529 13.997,3.472 14.389 C 3.432 14.662,3.435 14.747,3.493 14.981 C 3.530 15.131,3.610 15.341,3.670 15.448 C 3.743 15.576,4.646 16.508,6.320 18.183 C 8.711 20.575,8.877 20.733,9.154 20.870 C 9.408 20.996,9.494 21.018,9.798 21.032 C 10.363 21.059,10.762 20.909,11.124 20.532 C 11.394 20.251,13.712 16.984,13.850 16.690 C 14.069 16.223,14.037 15.586,13.772 15.127 C 13.712 15.024,13.326 14.597,12.913 14.178 L 12.163 13.417 16.082 9.498 C 18.238 7.343,20.048 5.514,20.104 5.433 C 20.295 5.159,20.282 4.776,20.072 4.537 C 19.874 4.312,19.601 4.215,19.340 4.277 M10.511 13.890 C 11.553 14.930,12.432 15.830,12.464 15.890 C 12.508 15.974,12.512 16.021,12.479 16.082 C 12.342 16.339,10.031 19.513,9.970 19.529 C 9.843 19.562,9.750 19.497,9.362 19.105 L 8.984 18.722 9.488 18.209 C 9.902 17.788,10.001 17.663,10.040 17.519 C 10.164 17.060,9.865 16.614,9.403 16.569 C 9.069 16.537,8.946 16.608,8.398 17.145 L 7.896 17.638 7.379 17.119 L 6.862 16.601 7.686 15.770 C 8.140 15.314,8.542 14.879,8.580 14.804 C 8.687 14.592,8.650 14.213,8.503 14.020 C 8.298 13.751,7.922 13.651,7.609 13.782 C 7.514 13.822,7.154 14.149,6.618 14.683 L 5.776 15.521 5.368 15.106 C 4.962 14.693,4.910 14.601,5.010 14.469 C 5.038 14.433,5.816 13.863,6.740 13.203 C 7.828 12.426,8.455 12.002,8.518 12.001 C 8.595 12.000,9.029 12.411,10.511 13.890 " stroke="none" fill-rule="evenodd"/></svg>
